src/16/actions/align-vertical-bottom.svg

<svg xmlns="http://www.w3.org/2000/svg" viewBox="0 0 16 16"><path d="M9 2v10h5V2H9zm1 1h3v8h-3V3zM2 7v5h5V7H2zm1 1h3v3H3V8zm-1 5v1h12v-1H2z" fill="currentColor" color="#5d656b"/></svg>

<svg xmlns="http://www.w3.org/2000/svg" viewBox="0 0 16 16">
  <defs id="defs3051">
    <style type="text/css" id="current-color-scheme">
      .ColorScheme-Text {
        color:#5d656b;
      }
      </style>
  </defs>
 <path style="fill:currentColor;fill-opacity:1;stroke:none" 
       d="M 9 2 L 9 12 L 14 12 L 14 2 L 9 2 z M 10 3 L 13 3 L 13 11 L 10 11 L 10 3 z M 2 7 L 2 12 L 7 12 L 7 7 L 2 7 z M 3 8 L 6 8 L 6 11 L 3 11 L 3 8 z M 2 13 L 2 14 L 14 14 L 14 13 L 2 13 z "
     class="ColorScheme-Text"
     />
</svg>
